storage/app/icons/tabler/filled/circle-number-3.svg

<!--
version: "2.4"
unicode: "f732"
-->
<svg
  xmlns="http://www.w3.org/2000/svg"
  width="24"
  height="24"
  viewBox="0 0 24 24"
  fill="currentColor"
>
  <path d="M12 2c5.523 0 10 4.477 10 10s-4.477 10 -10 10s-10 -4.477 -10 -10s4.477 -10 10 -10zm1 5h-2l-.15 .005a2 2 0 0 0 -1.85 1.995a1 1 0 0 0 1.974 .23l.02 -.113l.006 -.117h2v2h-2l-.133 .007c-1.111 .12 -1.154 1.73 -.128 1.965l.128 .021l.133 .007h2v2h-2l-.007 -.117a1 1 0 0 0 -1.993 .117a2 2 0 0 0 1.85 1.995l.15 .005h2l.15 -.005a2 2 0 0 0 1.844 -1.838l.006 -.157v-2l-.005 -.15a1.988 1.988 0 0 0 -.17 -.667l-.075 -.152l-.019 -.032l.02 -.03a2.01 2.01 0 0 0 .242 -.795l.007 -.174v-2l-.005 -.15a2 2 0 0 0 -1.838 -1.844l-.157 -.006z" />
</svg>

<svg xmlns="http://www.w3.org/2000/svg" width="24" height="24" fill="currentColor" viewBox="0 0 24 24"><path d="M12 2c5.523 0 10 4.477 10 10s-4.477 10-10 10S2 17.523 2 12 6.477 2 12 2m1 5h-2l-.15.005A2 2 0 0 0 9 9a1 1 0 0 0 1.974.23l.02-.113L11 9h2v2h-2l-.133.007c-1.111.12-1.154 1.73-.128 1.965l.128.021L11 13h2v2h-2l-.007-.117A1 1 0 0 0 9 15a2 2 0 0 0 1.85 1.995L11 17h2l.15-.005a2 2 0 0 0 1.844-1.838L15 15v-2l-.005-.15a2 2 0 0 0-.17-.667l-.075-.152-.019-.032.02-.03a2 2 0 0 0 .242-.795L15 11V9l-.005-.15a2 2 0 0 0-1.838-1.844z"/></svg>
